X:120
M:2/4
L:1/8
K:G
| G2 AB | cA dB | G2 AB | cA FD | 
| g2 ag | fd de | fd de | fe fd | 
g2 ag | fd de | fd cA | BG G2 :|| 

